!!!OTL-incipit: ES STEHEN DREI STERNE AM HIMMEL
!!!ARE: Europa, Mitteleuropa, Elsass
!!!SCT: Z0015
!!!TXL: @@DE
!!!YEM: Copyright 1995, estate of Helmut Schaffrath.
**kern	**text
*ICvox	*
*M6/8	*
*k[f#]	*
*G:	*
!LO:TX:a:t=Aus dem Elſaß.	!
{8d	Es
=1	=1
8g	ſte-
8d	-hen
8g	drei
8b/	Sterne
8g	.
8b/	am
=2	=2
(8.ddL	Him-
16ee	.
16dd	.
16ccJ)	.
8b	-mel,
8r}	.
{16bL	die
16ccJ	.
=3	=3
8.dd	ge-
16ee	-ben
8dd	der
8dd	Lieb
8cc	ih-
8cc	-ren
=4	=4
4.b	Schein.
8r	.
8r}	.
{(16bL	Gott
16ccJ)	.
=5	=5
(8ddL	grüß
8bJ)	.
8dd	euch,
8ee	ſchönes
8dd	.
8cc	Jungfräu-
=6	=6
4.b	.
8a	-lein,
8r	.
8r}	.
=7	=7
{(4.b	Jung-
8ccL)	.
8dd	.
8eeJ	.
=8	=8
(8.ddL	-fräu-
16ee	.
16dd	.
16ccJ)	.
4b}	-lein,
{8cc	wo
=9	=9
8.dd	bind
16ee	ich
8dd	mein
8dd	Röſ-
8cc	-ſe-
8cc	-lein
=10	=10
4.b	hin.
8r	.
8r}	.
==:|;;	==:|;;
!!!AGN: Sagen - Lied, Romanze, falsche Liebe, Tod
!!!ONB: ESAC (Essen Associative Code) Database: ZUCCAL
!!!AMT: compound duple
!!!AIN: vox
!!!EED: Helmut Schaffrath
!!!EEV: 1.0
!!!GTL: I. Ernste Romanzen und Sagen.
!!!URL-scan: https://www.digitale-sammlungen.de/de/view/bsb11160571?page=38
!!!ENC: Anna Maria Matuszewska
!!!EEV: 2025/01/23
*-	*-
